icons/currency-line.svg

<svg xmlns="http://www.w3.org/2000/svg" width="24" height="24" fill="none"><g clip-path="url(#a)"><g><path fill="#121212" d="M17 16H19V4H9V6H17V16ZM17 18V21C17 21.552 16.55 22 15.993 22H4.007C3.87513 22.0008 3.7444 21.9755 3.62232 21.9256C3.50025 21.8757 3.38923 21.8022 3.29566 21.7093C3.20208 21.6164 3.12779 21.5059 3.07705 21.3841C3.02632 21.2624 3.00013 21.1319 3 21L3.003 7C3.003 6.448 3.453 6 4.01 6H7V3C7 2.73478 7.10536 2.48043 7.29289 2.29289C7.48043 2.10536 7.73478 2 8 2H20C20.2652 2 20.5196 2.10536 20.7071 2.29289C20.8946 2.48043 21 2.73478 21 3V17C21 17.2652 20.8946 17.5196 20.7071 17.7071C20.5196 17.8946 20.2652 18 20 18H17ZM5.003 8L5 20H15V8H5.003ZM7 16H11.5C11.6326 16 11.7598 15.9473 11.8536 15.8536C11.9473 15.7598 12 15.6326 12 15.5C12 15.3674 11.9473 15.2402 11.8536 15.1464C11.7598 15.0527 11.6326 15 11.5 15H8.5C7.83696 15 7.20107 14.7366 6.73223 14.2678C6.26339 13.7989 6 13.163 6 12.5C6 11.837 6.26339 11.2011 6.73223 10.7322C7.20107 10.2634 7.83696 10 8.5 10H9V9H11V10H13V12H8.5C8.36739 12 8.24021 12.0527 8.14645 12.1464C8.05268 12.2402 8 12.3674 8 12.5C8 12.6326 8.05268 12.7598 8.14645 12.8536C8.24021 12.9473 8.36739 13 8.5 13H11.5C12.163 13 12.7989 13.2634 13.2678 13.7322C13.7366 14.2011 14 14.837 14 15.5C14 16.163 13.7366 16.7989 13.2678 17.2678C12.7989 17.7366 12.163 18 11.5 18H11V19H9V18H7V16Z"/></g></g><defs><clipPath id="a"><rect width="24" height="24" fill="white"/></clipPath></defs></svg>

<svg width="24" height="24" fill="none" xmlns="http://www.w3.org/2000/svg"><g clip-path="url(#a)"><path d="M17 16h2V4H9v2h8v10Zm0 2v3c0 .552-.45 1-1.007 1H4.007A1 1 0 0 1 3 21l.003-14c0-.552.45-1 1.007-1H7V3a1 1 0 0 1 1-1h12a1 1 0 0 1 1 1v14a1 1 0 0 1-1 1h-3ZM5.003 8 5 20h10V8H5.003ZM7 16h4.5a.5.5 0 0 0 0-1h-3a2.5 2.5 0 0 1 0-5H9V9h2v1h2v2H8.5a.5.5 0 0 0 0 1h3a2.5 2.5 0 0 1 0 5H11v1H9v-1H7v-2Z" /></g><defs><clipPath id="a"><path fill="#fff" d="M0 0h24v24H0z"/></clipPath></defs></svg>
